X: 90
M: 9/8
L: 1/8
K: D
|:\
|:\
f2a f2a fed | f2a f2a f2d |\
f2a f2a fed | e2e efd cBA :|
|:\
f3 a3 d3 | e2f ged cBA |\
f3 e3 d3 | B2B A2G FED H:|

